!!!OTL: ICH HEV SE NICH UP DE SCHOLEN GEBRACHT
!!!ARE: Europa, Mitteleuropa, Deutschland, Norddeutschland
!!!SCT: Z0050
!!!YEM: Copyright 1995, estate of Helmut Schaffrath.
**kern
*ICvox
*Ivox
*M3/4
*k[b-]
*d:
{4A
=1
4d
4d
4d
=2
4d
4e
4fn
=3
4g
4e
4e
=4
2e}
{4A
=5
2d
4d
=6
4fn
4e
8d
8d
=7
2a
4a
=8
2a}
{4a
=9
4g
4g
4g
=10
4fn
4fn
8e
8d
=11
4a
4A}
{4a
=12
4a
4g
4a
=13
4a
4g
4a
=14
4ccn
4b-
4a
=15
4g
4a
4g
=16
2fn}
{8fn
8fn
=17
4fn
4fn
4fn
=18
4fn
4e
4d
=19
2a
4A}
==
!!!AGN: Sagen - Lied, Romanze, Tod
!!!ONB: ESAC (Essen Associative Code) Database: ZUCCAL
!!!AMT: simple triple
!!!AIN: vox
!!!EED: Helmut Schaffrath
!!!EEV: 1.0
*-
